X:1
T:Title
%%score 1 { 2 | 3 }
L:1/8
Q:1/4=130
M:3/4
K:C
V:1 treble nm="Grand Piano, Soprano"
V:2 bass nm="Choir Pad, Also Heilig Ist der Tag"
V:3 bass 
V:1
 [B,E]4 [DF]2 | [EG]4 [CE]2 | [CF]4 [CE]2 | [B,D]4 z2 | [EG]4 [EA]2 | [GB]6 | [Gc]4 [GB]2 | %7
w: By~Ludwig~Senfl,~1544 *|||||||
 [EA]4 [CE]2 | [DG]4 [DF]2 | [^CE]4 z2 | [A,D]4 [CE]2 | [DG]2 [DG]2 [CE]2 | [CF]4 [CE]2 | %13
w: ||||||
 [B,D]4 z2 | [EG]4 [EA]2 | [GB]4 [GB]2 | [Ec]4 [EB]2 | [^CA]4 z2 | [Ec]4 [Gd]2 | [Ge]4 [Gd]2 | %20
w: |||||||
 [Fd]2 [Ec]4 | [EB]4 [CA]2 | [EG]4 [DF]2 | [^CE]4 z2 | [A,D]2 [CE]2 [CF]2 | [DG]4 [CE]2 | %26
w: ||||||
 [CF]4 [CE]2 | [B,D]4 z2 | [EG]4 [EA]2 | [GB]6 | [Ec]6 | [FA]6 | [DG]4 [CE]2 | [CF]2 [DG]2 [CE]2 | %34
w: ||||||||
 [B,E]6- | [B,E]2 z2 z2 |] %36
w: ||
V:2
 G,4 A,2 | C4 G,2 | A,4 G,2 | G,4 z2 | B,4 C2 | D6 | E4 D2 | C4 G,2 | B,4 A,2 | A,4 z2 | F,4 G,2 | %11
 B,2 B,2 G,2 | A,4 G,2 | G,4 z2 | B,4 C2 | D4 G,2 | A,4 ^G,2 | A,4 z2 | A,4 B,2 | C4 B,2 | %20
 A,2 A,4 | ^G,4 A,2 | C4 A,2 | A,4 z2 | F,2 G,2 A,2 | B,4 C2 | A,4 G,2 | G,4 z2 | B,4 C2 | D6 | %30
 C6 | C6 | B,4 G,2 | A,2 B,2 A,2 | ^G,6- | G,2 z2 z2 |] %36
V:3
 E,4 D,2 | C,4 C,2 | F,,4 C,2 | G,,4 z2 | E,4 A,2 | G,6 | C,4 G,,2 | A,,4 C,2 | G,,4 D,2 | %9
 A,,4 z2 | D,4 C,2 | B,,2 G,,2 C,2 | F,,4 C,2 | G,,4 z2 | E,4 A,2 | G,4 E,2 | A,,4 E,2 | A,,4 z2 | %18
 z2 z2 G,2 | C,4 G,,2 | D,2 A,,4 | E,4 F,2 | C,4 D,2 | A,,4 z2 | D,2 C,2 A,,2 | G,,4 A,,2 | %26
 F,,4 C,2 | G,,4 z2 | E,4 A,2 | G,6 | C,6 | F,,6 | G,,4 C,2 | A,,2 G,,2 A,,2 | E,,6- | %35
 E,,2 z2 z2 |] %36

